dist/svg/static/editorial-large.svg

<svg xmlns="http://www.w3.org/2000/svg" width="48" height="48" viewBox="0 0 48 48"><g fill="none" stroke="currentColor" stroke-miterlimit="10"><path d="M11 32.48h26m-26-3.949h26m-26-3.989h26m-14-4.021h14m-14-4.044h14M23 12.55h14m-25.5-.05h9v8h-9z"/><path d="M41.5 6.5a3 3 0 0 0-3-3h-32v37a3 3 0 0 0 3 3h32v-37z"/></g></svg>

<?xml version="1.0" encoding="UTF-8" standalone="no"?>
<svg width="48px" height="48px" viewBox="0 0 48 48" version="1.1" xmlns="http://www.w3.org/2000/svg" xmlns:xlink="http://www.w3.org/1999/xlink">
    <!-- Generator: sketchtool 46.2 (44496) - http://www.bohemiancoding.com/sketch -->
    <title>editorial-large</title>
    <desc>Created with sketchtool.</desc>
    <defs></defs>
    <g id="icons-published" stroke="none" stroke-width="1" fill="none" fill-rule="evenodd">
        <g id="briefing" transform="translate(0.000000, -538.000000)"></g>
        <g id="editorial-large" stroke="#000000">
            <path d="M11,32.5 L37,32.5 L11,32.5 Z M11,28.5 L37,28.5 L11,28.5 Z M11,24.5 L37,24.5 L11,24.5 Z M23,20.5 L37,20.5 L23,20.5 Z M23,16.5 L37,16.5 L23,16.5 Z M23,12.6 L37,12.6 L23,12.6 Z M11.5,12.5 L20.5,12.5 L20.5,20.5 L11.5,20.5 L11.5,12.5 Z" id="Shape"></path>
            <path d="M41.5,6.5 C41.5,4.8 40.2,3.5 38.5,3.5 L6.5,3.5 L6.5,40.5 C6.5,42.2 7.8,43.5 9.5,43.5 L41.5,43.5 L41.5,6.5 Z" id="Shape"></path>
        </g>
    </g>
</svg>
